svg/alphanum/j-square.svg

<svg width="448" height="512" viewBox="0 0 448 512" version="1.1" xmlns="http://www.w3.org/2000/svg"><path fill="currentColor" d="M400,480l-352,0c-26.51,0 -48,-21.49 -48,-48l0,-352c0,-26.51 21.49,-48 48,-48l352,0c26.51,0 48,21.49 48,48l0,352c0,26.51 -21.49,48 -48,48Zm-80,-352l-32,0c-8.837,0 -16,7.163 -16,16l0,138c0,12.86 -3.87,23.65 -11.609,29.366c-7.739,5.716 -21.207,9.654 -36.391,9.654c-15.184,0 -28.652,-3.938 -36.391,-9.654c-7.739,-5.716 -11.609,-16.506 -11.609,-29.366l0,-10c0,-8.837 -7.163,-16 -16,-16l-32,0c-8.837,0 -16,7.163 -16,16l0,10c0,8.288 1.216,16.408 3.649,25.267c2.432,8.859 6.523,17.933 12.272,27.221c5.749,9.288 12.752,17.54 21.007,24.756c8.255,7.216 18.906,13.146 31.953,17.79c13.046,4.644 27.345,6.966 43.119,6.966c15.774,0 30.294,-2.322 43.341,-6.966c13.046,-4.644 23.697,-10.574 31.952,-17.79c8.256,-7.216 15.221,-15.468 20.897,-24.756c5.675,-9.288 9.729,-18.362 12.161,-27.221c2.433,-8.859 3.649,-16.979 3.649,-25.267l0,-138c0,-8.837 -7.163,-16 -16,-16Z"></path></svg>

<svg width="448" height="512" viewBox="0 0 448 512" fill="none" xmlns="http://www.w3.org/2000/svg">
<path fill-rule="evenodd" clip-rule="evenodd" d="M48 32C21.4903 32 0 53.4903 0 80V432C0 458.51 21.4903 480 48 480H400C426.51 480 448 458.51 448 432V80C448 53.4903 426.51 32 400 32H48ZM128 256C119.163 256 112 263.163 112 272V282C112 290.288 113.216 298.408 115.649 307.267C118.081 316.126 122.172 325.2 127.921 334.488C133.67 343.776 140.673 352.028 148.928 359.244C157.183 366.46 167.834 372.39 180.881 377.034C193.927 381.678 208.226 384 224 384C239.774 384 254.294 381.678 267.341 377.034C280.387 372.39 291.038 366.46 299.293 359.244C307.549 352.028 314.514 343.776 320.19 334.488C325.865 325.2 329.919 316.126 332.351 307.267C334.784 298.408 336 290.288 336 282V144C336 135.163 328.837 128 320 128H288C279.163 128 272 135.163 272 144V282C272 294.86 268.13 305.65 260.391 311.366C252.652 317.082 239.184 321.02 224 321.02C208.816 321.02 195.348 317.082 187.609 311.366C179.87 305.65 176 294.86 176 282V272C176 263.163 168.837 256 160 256H128Z" fill="black"/>
</svg>
